X: 9940
T: Dever The Dancer
R: slip jig
M: 9/8
K: Edorian
|:BEE BEF ~G2A|BEE BAG FGA|BEE BEF ~G2A|Bcd ~A2G FED:|
|:ded =cAF ~G2D|GBd def gfe|ded =cAF ~G2A|B^cd ~A2G FED:|

